X: 41557
T: Union Is Welcome To Ireland, The
R: reel
M: 4/4
K: Gmajor
|:G2 BG FGAF|E2 Bc BGEF|GABG FGAF|DFAB AFDF|
G2 BG F2 AF|E2 Bc BGEF|GABG FGAF|DFAB AFDF:|
|:BcBA G3A|BcBA Beed|B3A G2 FG|DAAB AFDF|
B3A G3A|BcBA Be e2|dBBA G2 FG|E2 AB AFDF:|

